X:1003
T:The Connachtman's Rambles
B:O'Neill's 1003
Z:Transcribed by Dan G. Petersen, dangp@post6.tele.dk
M:6/8
L:1/8
K:Bm
3B/A/G/|FAA dAA|~BAA dAG|FAA dfe|dBB cBAG|
FAA dAA|~BAA def|gfe dfe|dBB B2:|
f|fbb faa|gfef def|fbb faa|fed e2e|
fbb afe|dBc def|agfe dfe|dBB B2:|
